shader_type sky;
render_mode use_half_res_pass;

group_uniforms clouds;

uniform sampler2D cloud_shape_sampler : filter_linear_mipmap_anisotropic, repeat_enable;
uniform sampler2D cloud_noise_sampler : filter_linear_mipmap_anisotropic, repeat_enable;
uniform sampler2D cloud_curves;

uniform int clouds_samples : hint_range(8, 32, 8) = 16;
uniform int shadow_sample : hint_range(1, 4, 1) = 2; // уменьшено

uniform float clouds_density : hint_range(0.0, 1.0, 0.1) = 0.5;
uniform float clouds_scale : hint_range(0.5, 1.5, 0.1) = 1.0;
uniform float clouds_smoothness : hint_range(0.01, 0.1, 0.01) = 0.035;
uniform vec3 clouds_light_color : source_color;
uniform float clouds_shadow_intensity : hint_range(0.1, 10.0, 0.1) = 1.0;

group_uniforms high_clouds;

uniform sampler2D high_clouds_sampler;
uniform float high_clouds_density : hint_range(0.0, 1.0, 0.05) = 0.0;

group_uniforms sky;

uniform vec3 top_color : source_color = vec3(1.0);
uniform vec3 bottom_color : source_color = vec3(1.0);
uniform vec3 sun_scatter : source_color = vec3(1.0);

group_uniforms astro;

uniform vec3 astro_tint : source_color;
uniform sampler2D astro_sampler : repeat_disable, filter_linear_mipmap;
uniform float astro_scale : hint_range(0.1, 10.0, 0.1) = 1.0;
uniform float astro_intensity : hint_range(1.0, 3.0, 0.1) = 1.0;

group_uniforms stars;

uniform float stars_intensity : hint_range(0.0, 5.0, 0.1) = 0.0;

group_uniforms shooting_stars;

uniform float shooting_stars_intensity : hint_range(0.0, 10.0, 0.1) = 0.0;
uniform sampler2D shooting_star_sampler : filter_linear, repeat_disable;
uniform vec3 shooting_star_tint : source_color;

float rand(float n){return fract(sin(n) * 43758.5453123);}

vec3 hash( vec3 x ){
	x = vec3( dot(x,vec3(127.1,311.7, 74.7)),
			  dot(x,vec3(269.5,183.3,246.1)),
			  dot(x,vec3(113.5,271.9,124.6)));
	return fract(sin(x)*43758.5453123);
}

vec3 voronoi( in vec3 x ){
	vec3 p = floor( x );
	vec3 f = fract( x );

	float id = 0.0;
	vec2 res = vec2( 100.0 );
	for( int k=-1; k<=1; k++ )
	for( int j=-1; j<=1; j++ )
	for( int i=-1; i<=1; i++) {
		vec3 b = vec3(float(i), float(j), float(k));
		vec3 r = b - f + hash(p+b);
		float d = dot(r,r);
		if(d < res.x){
			id = dot(p+b, vec3(1.0,57.0,113.0));
			res = vec2(d,res.x);
		}else if(d < res.y){
			res.y = d;
		}
	}
	return vec3(sqrt(res), abs(id));
}

mat3 direction_to_matrix(vec3 direction){
	vec3 x_axis = normalize(cross(vec3(0.0,1.0,0.0), direction));
	vec3 y_axis = cross(direction, x_axis);
	return mat3(vec3(x_axis.x,y_axis.x,direction.x),
				vec3(x_axis.y,y_axis.y,direction.y),
				vec3(x_axis.z,y_axis.z,direction.z));
}

float cloud_density(vec3 p, float progress, float t_large, float t_small){
	float noise = texture(cloud_noise_sampler, p.xy*4.0 + t_small).x * 0.1 + 0.9;
	float clouds_shape = texture(cloud_shape_sampler, (p.xy + t_large) * clouds_scale).x;
	float height_curve = texture(cloud_curves, vec2(progress,0.0)).x;
	float base_density = 1.0 - clouds_density;

	// упрощённая smoothstep
	float d = (clouds_shape * noise * height_curve - base_density) / clouds_smoothness;
	return clamp(d, 0.0, 1.0);
}

vec2 cloud_ray_march(vec3 direction, vec3 sun_direction){
	float density = 0.0;
	float light = 0.0;
	float height = 0.03;
	vec3 sample_point = vec3(0.0,0.0,2.0);

	float t_large = TIME * 0.001;
	float t_small = TIME * -0.005;

	int loop_offset = clouds_samples*3;
	for(int i = loop_offset; i < clouds_samples + loop_offset; i++){
		float progress = float(i)/float(clouds_samples);
		sample_point = direction * height * progress;

		float point_density = cloud_density(sample_point, progress, t_large, t_small);
		density += point_density;

		// early exit
		// if(density > ) break;

		// упрощённая тень
		vec3 shadow_offset = sun_direction * height * 0.5;
		light += cloud_density(sample_point + shadow_offset, progress, t_large, t_small);
	}
	return vec2(density, light/float(clouds_samples)*0.3);
}

vec3 random_direction(float seed){
	float phi = rand(seed) * PI;
	float costheta = rand(seed+100.0)*2.0-1.0;
	float theta = acos(costheta);
	return vec3(sin(theta)*cos(phi),(theta)*sin(phi),cos(theta));
}

float get_shooting_star(vec3 eyedir){
	if(shooting_stars_intensity <= 0.0) return 0.0;
	float shooting_star = 0.0;
	for(int i=0;i<4;i++){
		float base_rand = rand(float(i));
		float time = TIME + base_rand*2.0;
		float duration = 0.5 + base_rand;
		float seed = floor(time/duration)*duration + base_rand;
		float progress = mod(time,duration)/duration;
		float rand_value = rand(seed+100.0);
		float rand_scale = base_rand*10.0;
		float a = rand_value*0.8;
		mat3 angle = mat3(vec3(cos(a),-sin(a),0.0), vec3(sin(a),cos(a),0.0), vec3(0.0,0.0,1.0));
		vec3 shooting_dir = direction_to_matrix(random_direction(seed)) * angle * eyedir;
		vec2 shooting_uv = ((shooting_dir.xy + vec2(0.0,progress*0.4))*(8.0+rand_scale))+vec2(0.5);

		float shooting_mask = ceil(
			clamp(shooting_uv.x*(1.0-shooting_uv.x),0.0,1.0)*
			clamp(shooting_uv.y*(1.0-shooting_uv.y),0.0,1.0)
		)*ceil(shooting_dir.z);

		shooting_star = clamp(
			shooting_star + texture(shooting_star_sampler, shooting_uv).x
			* sin(progress*PI)
			* shooting_mask * rand_value,
		0.0,1.0);
	}
	return clamp(shooting_star,0.0,1.0);
}

void sky(){
	float horizon_mask = abs(EYEDIR.y);
	float bottom_mask = smoothstep(0.5,0.45,SKY_COORDS.y);

	vec3 dir = direction_to_matrix(LIGHT0_DIRECTION) * EYEDIR;
	vec2 astro_uv = (-(dir.xy/dir.z)*astro_scale)+vec2(0.5);
	float astro_mask = ceil(
		clamp(astro_uv.x*(1.0-astro_uv.x),0.0,1.0)*
		clamp(astro_uv.y*(1.0-astro_uv.y),0.0,1.0)
	)*ceil(dir.z);
	vec4 astro_color = texture(astro_sampler, astro_uv);

	vec3 sky_gradient = mix(bottom_color.rgb, top_color.rgb, clamp(EYEDIR.y,0.0,1.0));
	vec3 sunset_color = sun_scatter*(1.0-horizon_mask);
	vec3 sky_color = clamp(sky_gradient + sunset_color,0.0,1.0);

	// Stars только ночью
	if(stars_intensity > 0.0 && LIGHT0_DIRECTION.y < 0.0){
		vec2 stars = voronoi(EYEDIR*25.0).xz;
		sky_color += smoothstep(0.025 + ((1.0+sin(TIME+stars.y))/2.0)*0.05,0.0,stars.x) * stars_intensity;
	}

	if(shooting_stars_intensity > 0.0){
		sky_color += get_shooting_star(EYEDIR) * shooting_stars_intensity * shooting_star_tint;
	}

	sky_color = mix(sky_color, astro_color.rgb * astro_intensity * astro_tint, astro_color.a*astro_mask*bottom_mask);

	if(high_clouds_density > 0.0){
		vec2 high_clouds_uv = (EYEDIR.xz/clamp(EYEDIR.y,0.0,1.0))*0.25 + TIME*0.001;
		float high_clouds_mask = texture(high_clouds_sampler, high_clouds_uv).x;
		sky_color = mix(sky_color, clouds_light_color,
			smoothstep(0.0,1.0,high_clouds_mask)*horizon_mask*bottom_mask*high_clouds_density);
	}

	// clouds
	if(AT_HALF_RES_PASS){
		if(EYEDIR.y > 0.05){ // early exit по горизонту
			vec3 clouds_direction = vec3(EYEDIR.xz / clamp(EYEDIR.y,0.0,1.0),1.0);
			vec2 clouds = cloud_ray_march(clouds_direction,LIGHT0_DIRECTION);

			COLOR = mix(bottom_color, clouds_light_color, exp(-clouds.y*clouds_shadow_intensity));
			ALPHA = (1.0 - exp(-clouds.x*horizon_mask*bottom_mask*10.0));
		}else{
			COLOR = bottom_color;
		}
	}else{
		COLOR.rgb = mix(sky_color, HALF_RES_COLOR.rgb, HALF_RES_COLOR.a);
	}
}